icons/OnedriveColor.svg

<svg width="16" height="16" viewBox="0 0 16 16" fill="none" xmlns="http://www.w3.org/2000/svg">
<path d="M6.18012 5.86503L9.40012 7.79503L11.3151 7.00003C11.7056 6.83318 12.1255 6.74646 12.5501 6.74503H12.7601C12.5296 5.84636 12.0432 5.03396 11.3598 4.40653C10.6764 3.77909 9.82544 3.36361 8.9104 3.21058C7.99536 3.05754 7.05557 3.17353 6.2052 3.54445C5.35482 3.91537 4.63046 4.52526 4.12012 5.30003H4.17012C4.87951 5.29858 5.57537 5.49418 6.18012 5.86503Z" fill="#0364B8"/>
<path d="M6.17999 5.86498C5.57865 5.49416 4.88647 5.29689 4.17999 5.29498H4.12999C3.43798 5.30762 2.7623 5.50729 2.17458 5.87282C1.58686 6.23836 1.10901 6.75614 0.79172 7.37124C0.474427 7.98635 0.329512 8.67586 0.372341 9.36666C0.41517 10.0575 0.644147 10.7238 1.03499 11.295L3.87499 10.1L5.13499 9.56998L7.93999 8.38998L9.40999 7.77498L6.17999 5.86498Z" fill="#0F78D4"/>
<path d="M12.7599 6.73999H12.5499C12.1253 6.74142 11.7053 6.82814 11.3149 6.99499L9.3999 7.79499L9.9549 8.12499L11.7749 9.21499L12.5699 9.71499L15.2899 11.34C15.5359 10.8815 15.663 10.3686 15.6598 9.84833C15.6566 9.32802 15.5231 8.81681 15.2715 8.36136C15.0199 7.90591 14.6583 7.52074 14.2195 7.24101C13.7808 6.96128 13.279 6.79591 12.7599 6.75999V6.73999Z" fill="#1490DF"/>
<path d="M12.5699 9.69502L11.7749 9.19502L9.9549 8.10502L9.3999 7.77502L7.9299 8.39002L5.1249 9.57002L3.8649 10.1L1.0249 11.295C1.37775 11.802 1.84813 12.216 2.39582 12.5016C2.94351 12.7872 3.55222 12.9359 4.1699 12.935H12.5499C13.1118 12.9359 13.6634 12.7843 14.146 12.4964C14.6285 12.2085 15.0239 11.795 15.2899 11.3L12.5699 9.69502Z" fill="#28A8EA"/>
<path style="mix-blend-mode:soft-light" opacity="0.5" d="M12.76 6.74003C12.5296 5.84136 12.0431 5.02896 11.3597 4.40152C10.6763 3.77408 9.82535 3.35861 8.91031 3.20557C7.99527 3.05254 7.05548 3.16852 6.2051 3.53945C5.35473 3.91037 4.63037 4.52026 4.12002 5.29503C3.61706 5.29831 3.11967 5.40062 2.65625 5.59613C2.19283 5.79164 1.77245 6.07651 1.41913 6.43448C0.705551 7.15744 0.308393 8.13425 0.315023 9.15002C0.321654 10.1658 0.731529 11.1373 1.45448 11.8509C2.17743 12.5645 3.15424 12.9617 4.17002 12.955H12.55C13.3631 12.9649 14.1478 12.6559 14.7359 12.0943C15.3239 11.5326 15.6686 10.763 15.6961 9.95028C15.7235 9.13756 15.4316 8.34641 14.8828 7.74635C14.334 7.14629 13.572 6.78505 12.76 6.74003Z" fill="url(#paint0_linear_2180_4600)"/>
<defs>
<linearGradient id="paint0_linear_2180_4600" x1="4.95002" y1="4.29503" x2="10.18" y2="13.36" gradientUnits="userSpaceOnUse">
<stop stop-color="white" stop-opacity="0.5"/>
<stop offset="1" stop-opacity="0.7"/>
</linearGradient>
</defs>
</svg>

<svg width="16" height="16" fill="none" xmlns="http://www.w3.org/2000/svg"><path d="m6.18 5.865 3.22 1.93L11.315 7a3.17 3.17 0 0 1 1.235-.255h.21A4.79 4.79 0 0 0 4.12 5.3h.05a3.83 3.83 0 0 1 2.01.565z" fill="#0364B8"/><path d="M6.18 5.865a3.83 3.83 0 0 0-2-.57h-.05a3.835 3.835 0 0 0-3.095 6l2.84-1.195 1.26-.53L7.94 8.39l1.47-.615-3.23-1.91z" fill="#0F78D4"/><path d="M12.76 6.74h-.21a3.17 3.17 0 0 0-1.235.255l-1.915.8.555.33 1.82 1.09.795.5 2.72 1.625a3.115 3.115 0 0 0-2.53-4.58v-.02z" fill="#1490DF"/><path d="m12.57 9.695-.795-.5-1.82-1.09-.555-.33-1.47.615-2.805 1.18-1.26.53-2.84 1.195a3.825 3.825 0 0 0 3.145 1.64h8.38a3.106 3.106 0 0 0 2.74-1.635l-2.72-1.605z" fill="#28A8EA"/><path style="mix-blend-mode:soft-light" opacity=".5" d="M12.76 6.74a4.79 4.79 0 0 0-8.64-1.445 3.83 3.83 0 0 0 .05 7.66h8.38a3.11 3.11 0 0 0 .21-6.215z" fill="url(#a)"/><defs><linearGradient id="a" x1="4.95" y1="4.295" x2="10.18" y2="13.36" gradientUnits="userSpaceOnUse"><stop stop-color="#fff" stop-opacity=".5"/><stop offset="1" stop-opacity=".7"/></linearGradient></defs></svg>
